brandFactory_export/3.Masa/Consultar documento_3Masa.svg

<?xml version="1.0" encoding="UTF-8"?>
<svg width="24px" height="24px" viewBox="0 0 24 24" version="1.1" xmlns="http://www.w3.org/2000/svg" xmlns:xlink="http://www.w3.org/1999/xlink">
    <title>3.Masa/Consultar documento_3Masa</title>
    <g id="Symbols" stroke="none" stroke-width="1" fill="none" fill-rule="evenodd">
        <g id="3.Masa/Consultar-documento_3Masa" fill="#5CB615" fill-rule="nonzero">
            <path d="M23.5764706,7.24033613 L23.5764706,7.2302521 C23.5764706,7.21344538 23.5764706,7.2 23.5731092,7.18319328 L23.5731092,7.16638655 L23.5630252,7.10588235 C23.5596639,7.08571429 23.5529412,7.06890756 23.5495798,7.0487395 C23.5495798,7.04201681 23.5462185,7.03865546 23.5428571,7.03193277 C23.5394958,7.01848739 23.5327731,7.00504202 23.5260504,6.98823529 L23.5193277,6.97478992 C23.512605,6.95462185 23.502521,6.93781513 23.492437,6.9210084 L23.4621849,6.87058824 L23.4521008,6.85714286 C23.4420168,6.84369748 23.4352941,6.83361345 23.4252101,6.82016807 L23.4151261,6.80672269 C23.4016807,6.78991597 23.3882353,6.77647059 23.3747899,6.76302521 L16.8201681,0.208403361 C16.8067227,0.194957983 16.789916,0.181512605 16.7764706,0.168067227 L16.7630252,0.157983193 C16.7495798,0.14789916 16.7394958,0.141176471 16.7260504,0.131092437 L16.712605,0.121008403 L16.6621849,0.0907563025 C16.6453782,0.0806722689 16.6252101,0.0739495798 16.6084034,0.0638655462 L16.594958,0.0571428571 C16.5815126,0.0504201681 16.5680672,0.0470588235 16.5512605,0.0403361345 L16.5378151,0.0403361345 C16.5210084,0.0336134454 16.5008403,0.0302521008 16.4806723,0.0268907563 L16.4201681,0.0168067227 L16.4033613,0.0168067227 C16.3865546,0.0168067227 16.3731092,0.0134453782 16.3563025,0.0134453782 L16.3462185,0.0134453782 C13.0084034,0.0100840336 9.23361345,0.0134453782 8.53445378,0.0134453782 C7.68067227,0.0134453782 7.15294118,0.541176471 7.15294118,1.39159664 L7.15294118,4.12773109 C3.52941176,5.41176471 1.62689076,9.38823529 2.91092437,13.0151261 C3.18319328,13.7848739 3.58655462,14.5008403 4.10756303,15.1294118 L0.191596639,19.1932773 C-0.0605042017,19.4655462 -0.0470588235,19.8890756 0.225210084,20.1445378 C0.490756303,20.389916 0.904201681,20.3831933 1.15966387,20.1277311 L5.05882353,16.0773109 C5.68403361,16.5915966 6.39327731,16.994958 7.15630252,17.2638655 L7.15630252,22.2016807 C7.15630252,23.0588235 7.68739496,23.5932773 8.54117647,23.5932773 L22.2184874,23.5932773 C23.0386555,23.5932773 23.5731092,23.0588235 23.5731092,22.2352941 C23.5764706,21.7042017 23.5764706,12.3529412 23.5764706,7.24033613 Z M21.2806723,6.56806723 L19.6268908,6.56806723 C18.8436975,6.56806723 18.1882353,6.32268908 17.7277311,5.86218487 C17.2672269,5.40168067 17.0252101,4.74285714 17.0252101,3.95966387 L17.0252101,2.30588235 L19.1529412,4.43361345 L21.2806723,6.56806723 L21.2806723,6.56806723 Z M5.49915966,6.72268908 C7.69411765,4.52773109 11.2504202,4.52773109 13.4420168,6.72268908 C15.6336134,8.91764706 15.6369748,12.4739496 13.4420168,14.6655462 C11.2470588,16.8571429 7.6907563,16.8605042 5.49915966,14.6655462 C4.44705882,13.6134454 3.85544794,12.1848739 3.85544794,10.692437 C3.85210084,9.20336134 4.44369748,7.77478992 5.49915966,6.72268908 Z" id="Consultar-documento_3Masa"></path>
        </g>
    </g>
</svg>

<svg width="24" height="24" viewBox="0 0 24 24" xmlns="http://www.w3.org/2000/svg"><path d="M23.576 7.24v-.01c0-.017 0-.03-.003-.047v-.017l-.01-.06c-.003-.02-.01-.037-.013-.057 0-.007-.004-.01-.007-.017-.004-.014-.01-.027-.017-.044l-.007-.013c-.006-.02-.016-.037-.027-.054l-.03-.05-.01-.014-.027-.037-.01-.013a.517.517 0 00-.04-.044L16.82.208l-.044-.04-.013-.01-.037-.027-.013-.01-.05-.03c-.018-.01-.038-.017-.055-.027l-.013-.007c-.013-.007-.027-.01-.044-.017h-.013C16.52.034 16.5.03 16.48.027l-.06-.01h-.018c-.016 0-.03-.004-.047-.004h-.01c-3.338-.003-7.112 0-7.812 0-.853 0-1.381.528-1.381 1.379v2.736a6.964 6.964 0 00-3.045 11.001L.192 19.193a.674.674 0 00.968.935l3.899-4.05a6.931 6.931 0 002.097 1.186v4.938c0 .857.531 1.391 1.385 1.391h13.677c.82 0 1.355-.534 1.355-1.358.003-.53.003-9.882.003-14.995zm-2.295-.672h-1.654c-.783 0-1.439-.245-1.9-.706-.46-.46-.702-1.12-.702-1.902V2.306l2.128 2.128 2.128 2.134zm-15.782.155a5.614 5.614 0 017.943 0 5.617 5.617 0 11-7.943 0z" fill="#5CB615" fill-rule="nonzero"/></svg>
